X:5
T:Qui donc a mis la table - C121
C:C. Duchesneau
M:6/4
L:1/4
K:C
C C2D|E2F E2D|C2E D2D|C2E E2F|G2A G2F|E2G F2F|E2G c2c|BAG A2A|
G2G c2c|BAG A2A|G2E F3|AGF E2C|F2F E2E|D2E F3|AGF E2C|E2E D2D|C2||
